public/svg/elk.svg

<svg width="24" height="24" viewBox="0 0 24 24" fill="none" xmlns="http://www.w3.org/2000/svg">
<g clip-path="url(#clip0)">
<path d="M23.958 12.5879C23.958 10.5779 22.716 8.80793 20.838 8.12393C21.0308 7.14176 21.0041 6.12913 20.7599 5.15849C20.5156 4.18785 20.0599 3.28318 19.4252 2.50922C18.7906 1.73525 17.9927 1.11112 17.0887 0.681478C16.1847 0.251833 15.1969 0.0272939 14.196 0.0239258C12.012 0.0299258 9.98403 1.07993 8.70603 2.84393C8.08605 2.36619 7.32727 2.10353 6.54462 2.09571C5.76197 2.0879 4.99809 2.33537 4.3687 2.80063C3.73931 3.26589 3.2787 3.9236 3.05663 4.67412C2.83456 5.42465 2.86314 6.2271 3.13803 6.95993C2.21785 7.29589 1.42323 7.90669 0.861904 8.70951C0.300576 9.51232 -0.000312315 10.4683 3.0762e-05 11.4479C-0.00349197 12.426 0.29562 13.3812 0.856352 14.1825C1.41708 14.9839 2.21198 15.5921 3.13203 15.9239C2.94774 16.9026 2.98032 17.9097 3.22747 18.8744C3.47462 19.839 3.93032 20.7378 4.56248 21.5072C5.19463 22.2767 5.98784 22.8981 6.88621 23.3278C7.78458 23.7574 8.76625 23.9848 9.76203 23.9939C10.8338 23.9948 11.8903 23.7393 12.8433 23.2487C13.7962 22.7582 14.618 22.0468 15.24 21.1739C15.8641 21.6709 16.6383 21.9416 17.436 21.9419C18.0188 21.9426 18.593 21.8018 19.1094 21.5316C19.6257 21.2614 20.0687 20.8699 20.4004 20.3907C20.732 19.9115 20.9424 19.359 21.0134 18.7805C21.0844 18.2021 21.0139 17.6151 20.808 17.0699C21.7276 16.7352 22.5225 16.1267 23.0857 15.3264C23.6488 14.5261 23.9533 13.5725 23.958 12.5939V12.5879Z" fill="white"/>
<path d="M9.41955 10.3499L14.6636 12.7499L19.9436 8.09389C20.1175 7.2335 20.0984 6.34524 19.8877 5.49312C19.6769 4.641 19.2797 3.84625 18.7248 3.16616C18.1698 2.48606 17.4708 1.93757 16.6783 1.5602C15.8857 1.18284 15.0194 0.986002 14.1416 0.983887C13.1816 0.984513 12.2363 1.21993 11.3882 1.66963C10.54 2.11932 9.81475 2.76964 9.27556 3.56389L8.39355 8.15389L9.41355 10.3499H9.41955Z" fill="#FED10A"/>
<path d="M3.99026 15.924C3.8132 16.7878 3.83046 17.6801 4.04078 18.5363C4.2511 19.3926 4.64921 20.1914 5.2063 20.8748C5.76338 21.5582 6.46548 22.1092 7.26175 22.4878C8.05803 22.8665 8.92854 23.0633 9.81026 23.064C10.7779 23.0635 11.7307 22.8258 12.5852 22.3719C13.4398 21.9179 14.1701 21.2615 14.7123 20.46L15.5823 15.9L14.4183 13.656L9.15626 11.25L3.99026 15.93V15.924Z" fill="#24BBB1"/>
<path d="M3.96 6.81593L7.56 7.66793L8.33999 3.56993C7.8503 3.20347 7.25552 3.00464 6.64389 3.00294C6.03226 3.00124 5.43638 3.19677 4.94466 3.5605C4.45295 3.92424 4.09159 4.43681 3.91421 5.02216C3.73684 5.6075 3.75289 6.23443 3.96 6.80993V6.81593Z" fill="#EF5098"/>
<path d="M3.64787 7.68018C2.87105 7.94164 2.1936 8.436 1.70763 9.09603C1.22166 9.75607 0.950748 10.5498 0.931738 11.3692C0.912727 12.1886 1.14654 12.994 1.60137 13.6759C2.05621 14.3577 2.71001 14.883 3.47387 15.1802L8.51387 10.5962L7.59587 8.61618L3.64787 7.68018Z" fill="#17A8E0"/>
<path d="M15.624 20.46C16.122 20.838 16.716 21.048 17.334 21.048C17.7926 21.0477 18.2443 20.9364 18.6506 20.7238C19.0569 20.5112 19.4058 20.2034 19.6674 19.8268C19.9291 19.4502 20.0958 19.016 20.1534 18.561C20.211 18.1061 20.1577 17.6439 19.998 17.214L16.416 16.374L15.624 20.46Z" fill="#93C83E"/>
<path d="M16.3565 15.4261L20.3045 16.3501C21.0866 16.0942 21.7701 15.602 22.2607 14.9414C22.7514 14.2808 23.0252 13.4843 23.0442 12.6616C23.0633 11.839 22.8268 11.0306 22.3673 10.348C21.9078 9.66535 21.2479 9.14202 20.4785 8.8501L15.3125 13.4041L16.3565 15.4261Z" fill="#0779A1"/>
</g>
<defs>
<clipPath id="clip0">
<rect width="24" height="24" fill="white"/>
</clipPath>
</defs>
</svg>

<svg xmlns="http://www.w3.org/2000/svg" width="24" height="24" fill="none" xmlns:v="https://vecta.io/nano"><g clip-path="url(#A)"><path d="M23.958 12.588a4.73 4.73 0 0 0-3.12-4.464 6.79 6.79 0 0 0-1.413-5.615A6.79 6.79 0 0 0 14.196.024a6.79 6.79 0 0 0-5.49 2.82 3.6 3.6 0 0 0-4.337-.043A3.6 3.6 0 0 0 3.138 6.96c-.92.336-1.715.947-2.276 1.75S0 10.468 0 11.448a4.74 4.74 0 0 0 3.132 4.476 6.81 6.81 0 0 0 1.43 5.583 6.81 6.81 0 0 0 5.2 2.487 6.72 6.72 0 0 0 5.478-2.82c.624.497 1.398.768 2.196.768a3.6 3.6 0 0 0 2.964-1.551 3.6 3.6 0 0 0 .408-3.321c.92-.335 1.715-.943 2.278-1.744a4.79 4.79 0 0 0 .872-2.732v-.006z" fill="#fff"/><path d="M9.42 10.35l5.244 2.4 5.28-4.656c.174-.86.155-1.749-.056-2.601s-.608-1.647-1.163-2.327-1.254-1.229-2.046-1.606-1.659-.574-2.537-.576c-.96.001-1.905.236-2.753.686s-1.573 1.1-2.113 1.894l-.882 4.59 1.02 2.196h.006z" fill="#fed10a"/><path d="M3.99 15.924c-.177.864-.16 1.756.051 2.612s.608 1.655 1.166 2.339 1.259 1.234 2.055 1.613 1.667.576 2.549.576a5.92 5.92 0 0 0 2.775-.692c.855-.454 1.585-1.11 2.127-1.912l.87-4.56-1.164-2.244-5.262-2.406-5.166 4.68v-.006z" fill="#24bbb1"/><path d="M3.96 6.816l3.6.852.78-4.098c-.49-.366-1.084-.565-1.696-.567s-1.208.194-1.699.558-.853.876-1.03 1.462-.161 1.212.046 1.788v.006z" fill="#ef5098"/><path d="M3.648 7.68a3.99 3.99 0 0 0-2.716 3.689 3.99 3.99 0 0 0 2.542 3.811l5.04-4.584-.918-1.98-3.948-.936z" fill="#17a8e0"/><path d="M15.624 20.46c.498.378 1.092.588 1.71.588.459 0 .91-.112 1.317-.324s.755-.52 1.017-.897.428-.811.486-1.266.004-.917-.155-1.347l-3.582-.84-.792 4.086z" fill="#93c83e"/><path d="M16.357 15.426l3.948.924c.782-.256 1.466-.748 1.956-1.409s.765-1.457.784-2.28a3.98 3.98 0 0 0-2.566-3.812l-5.166 4.554 1.044 2.022z" fill="#0779a1"/></g><defs><clipPath id="A"><path fill="#fff" d="M0 0h24v24H0z"/></clipPath></defs></svg>
